icons/circle/48/waterfox.svg

<svg version="1.1" viewBox="0 0 48 48" xmlns="http://www.w3.org/2000/svg">
 <defs>
  <linearGradient id="bg" x2="0" y1="1" y2="47" gradientUnits="userSpaceOnUse">
   <stop stop-color="#39569d" offset="0"/>
   <stop stop-color="#344e8e" offset="1"/>
  </linearGradient>
 </defs>
 <path d="m36.31 5c5.859 4.062 9.688 10.831 9.688 18.5 0 12.426-10.07 22.5-22.5 22.5-7.669 0-14.438-3.828-18.5-9.688 1.037 1.822 2.306 3.499 3.781 4.969 4.085 3.712 9.514 5.969 15.469 5.969 12.703 0 23-10.298 23-23 0-5.954-2.256-11.384-5.969-15.469-1.469-1.475-3.147-2.744-4.969-3.781zm4.969 3.781c3.854 4.113 6.219 9.637 6.219 15.719 0 12.703-10.297 23-23 23-6.081 0-11.606-2.364-15.719-6.219 4.16 4.144 9.883 6.719 16.219 6.719 12.703 0 23-10.298 23-23 0-6.335-2.575-12.06-6.719-16.219z" opacity=".05"/>
 <path d="m41.28 8.781c3.712 4.085 5.969 9.514 5.969 15.469 0 12.703-10.297 23-23 23-5.954 0-11.384-2.256-15.469-5.969 4.113 3.854 9.637 6.219 15.719 6.219 12.703 0 23-10.298 23-23 0-6.081-2.364-11.606-6.219-15.719z" opacity=".1"/>
 <path d="m31.25 2.375c8.615 3.154 14.75 11.417 14.75 21.13 0 12.426-10.07 22.5-22.5 22.5-9.708 0-17.971-6.135-21.12-14.75a23 23 0 0 0 44.875-7 23 23 0 0 0-16-21.875z" opacity=".2"/>
 <circle cx="24" cy="24" r="23" fill="url(#bg)"/>
 <path d="m40.03 7.531c3.712 4.084 5.969 9.514 5.969 15.469 0 12.703-10.297 23-23 23-5.954 0-11.384-2.256-15.469-5.969 4.178 4.291 10.01 6.969 16.469 6.969 12.703 0 23-10.298 23-23 0-6.462-2.677-12.291-6.969-16.469z" opacity=".1"/>
 <circle cx="24" cy="24" r="12" fill="#252f3c" style="fill:#2d3949"/>
 <path transform="translate(1 1)" d="m24.861 6.6276c-1.3413 0.13564-2.422 1.4222-2.8609 2.5063a15 15 0 1 0 17 14.866c0-5-2.8007-5.446-3.4406-9.5594-3.0594 3.0594-3.5594 4.5594-3.5594 7.5594s1 4.5 1 6.5-1 4.5-4 6.4087c3-5.9087-1-9.4087-1-9.4087a5.5 5.5 0 1 1-5.5-5.5s-0.7405-2.4623-5.5-3c4-2 6-1 9-1s5.1-0.4 7.6391-3.8525c-3.6692-0.0724-5.8339-2.43-8.6391-3.1141 0.1834-0.79839 0.5148-1.5237 1.3734-2.0389-0.5276-0.31656-1.0356-0.41508-1.5125-0.36685z" opacity=".1"/>
 <path d="m24.861 6.6276c-1.3413 0.13564-2.422 1.4222-2.8609 2.5063a15 15 0 1 0 17 14.866c0-5-3-6-3.4406-9.5594-3.0594 3.0594-3.5594 4.5594-3.5594 7.5594s1 4.5 1 6.5-1 4.5-4 6.4087c3-5.9087-1-9.4087-1-9.4087a5.5 5.5 0 1 1-5.5-5.5s-0.7405-2.4623-5.5-3c4-2 6-1 9-1s4.5-0.5 7.5594-3.5594c-3.5594-0.4406-5.7542-2.7231-8.5594-3.4072 0.1834-0.79839 0.5148-1.5237 1.3734-2.0389-0.5276-0.31656-1.0356-0.41508-1.5125-0.36685z" fill="#3490b5" style="fill:#399ec6"/>
</svg>

<svg xmlns="http://www.w3.org/2000/svg" version="1.1" viewBox="0 0 48 48">
	<defs>
		<linearGradient id="bg" gradientUnits="userSpaceOnUse" x1="0" x2="0" y1="1" y2="47">
			<stop offset="0" stop-color="#39569d"/>
			<stop offset="1" stop-color="#344e8e"/>
		</linearGradient>
	</defs>
	<path opacity=".05" d="m 36.31 5 c 5.859 4.062 9.688 10.831 9.688 18.5 c 0 12.426 -10.07 22.5 -22.5 22.5 c -7.669 0 -14.438 -3.828 -18.5 -9.688 c 1.037 1.822 2.306 3.499 3.781 4.969 c 4.085 3.712 9.514 5.969 15.469 5.969 c 12.703 0 23 -10.298 23 -23 c 0 -5.954 -2.256 -11.384 -5.969 -15.469 c -1.469 -1.475 -3.147 -2.744 -4.969 -3.781 z m 4.969 3.781 c 3.854 4.113 6.219 9.637 6.219 15.719 c 0 12.703 -10.297 23 -23 23 c -6.081 0 -11.606 -2.364 -15.719 -6.219 c 4.16 4.144 9.883 6.719 16.219 6.719 c 12.703 0 23 -10.298 23 -23 c 0 -6.335 -2.575 -12.06 -6.719 -16.219 z"/>
	<path opacity=".1" d="m 41.28 8.781 c 3.712 4.085 5.969 9.514 5.969 15.469 c 0 12.703 -10.297 23 -23 23 c -5.954 0 -11.384 -2.256 -15.469 -5.969 c 4.113 3.854 9.637 6.219 15.719 6.219 c 12.703 0 23 -10.298 23 -23 c 0 -6.081 -2.364 -11.606 -6.219 -15.719 z"/>
	<path opacity=".2" d="m 31.25 2.375 c 8.615 3.154 14.75 11.417 14.75 21.13 c 0 12.426 -10.07 22.5 -22.5 22.5 c -9.708 0 -17.971 -6.135 -21.12 -14.75 a 23 23 0 0 0 44.875 -7 a 23 23 0 0 0 -16 -21.875 z"/>
	<circle fill="url(#bg)" cx="24" cy="24" r="23"/>
	<path opacity=".1" d="m 40.03 7.531 c 3.712 4.084 5.969 9.514 5.969 15.469 0 12.703 -10.297 23 -23 23 c -5.954 0 -11.384 -2.256 -15.469 -5.969 4.178 4.291 10.01 6.969 16.469 6.969 c 12.703 0 23 -10.298 23 -23 0 -6.462 -2.677 -12.291 -6.969 -16.469 z"/>
	<g>
		<circle fill="#252f3c" cx="24" cy="24" r="12"/>
		<path d="M 24.8609,6.62759 C 23.5196,6.76323 22.4389,8.04977 22,9.13393 A 15,15 0 1,0 39,24 C 39,19 36.1993,18.554 35.5594,14.4406 C 32.5,17.5 32,19 32,22 S 33,26.5 33,28.5 S 32,33 29,34.9087 C 32,29 28,25.5 28,25.5 A 5.5,5.5 0 1,1 22.5,20 S 21.7595,17.5377 17,17 C 21,15 23,16 26,16 S 31.1,15.6 33.6391,12.1475 C 29.9699,12.0751 27.8052,9.71753 25,9.03337 C 25.1834,8.23498 25.5148,7.50964 26.3734,6.99444 C 25.8458,6.67788 25.3378,6.57936 24.8609,6.62759 Z" opacity=".1" transform="translate(1 1)"/>
		<path d="M 24.8609,6.62759 C 23.5196,6.76323 22.4389,8.04977 22,9.13393 A 15,15 0 1,0 39,24 C 39,19 36,18 35.5594,14.4406 C 32.5,17.5 32,19 32,22 S 33,26.5 33,28.5 S 32,33 29,34.9087 C 32,29 28,25.5 28,25.5 A 5.5,5.5 0 1,1 22.5,20 S 21.7595,17.5377 17,17 C 21,15 23,16 26,16 S 30.5,15.5 33.5594,12.4406 C 30,12 27.8052,9.71753 25,9.03337 C 25.1834,8.23498 25.5148,7.50964 26.3734,6.99444 C 25.8458,6.67788 25.3378,6.57936 24.8609,6.62759 Z" fill="#3490b5"/>
	</g>
</svg>
